public/etherscan.svg

<?xml version="1.0" encoding="UTF-8" standalone="no" ?>
<!DOCTYPE svg PUBLIC "-//W3C//DTD SVG 1.1//EN" "http://www.w3.org/Graphics/SVG/1.1/DTD/svg11.dtd">
<svg xmlns="http://www.w3.org/2000/svg" xmlns:xlink="http://www.w3.org/1999/xlink" version="1.1" width="72" height="72" viewBox="0 0 72 72" xml:space="preserve">
<desc>Created with Fabric.js 5.2.4</desc>
<defs>
</defs>
<g transform="matrix(1 0 0 1 36 36)" id="8de99e8d-096a-4784-86e9-1a56182845a0"  >
<rect style="stroke: none; stroke-width: 1; stroke-dasharray: none; stroke-linecap: butt; stroke-dashoffset: 0; stroke-linejoin: miter; stroke-miterlimit: 4; fill: rgb(255,255,255); fill-rule: nonzero; opacity: 1; visibility: hidden;" vector-effect="non-scaling-stroke"  x="-36" y="-36" rx="0" ry="0" width="72" height="72" />
</g>
<g transform="matrix(Infinity NaN NaN Infinity 0 0)" id="10575634-f5d9-4a81-af80-e738c09edd21"  >
</g>
<g transform="matrix(0.07 0 0 0.07 36 36)"  >
<g style="" vector-effect="non-scaling-stroke"   >
		<g transform="matrix(1 0 0 1 -3.63 -32.06)" id="Path_1"  >
<path style="stroke: none; stroke-width: 1; stroke-dasharray: none; stroke-linecap: butt; stroke-dashoffset: 0; stroke-linejoin: miter; stroke-miterlimit: 4; fill: rgb(23,24,25); fill-rule: nonzero; opacity: 1;" vector-effect="non-scaling-stroke"  transform=" translate(-362.64, -328.1)" d="M 280.433 353.152 C 280.4324319487096 349.83963436019974 281.7518486350946 346.66359171368464 284.0992938945165 344.3266562827347 C 286.44673915393844 341.98972085178474 289.6286702558434 340.6845688500918 292.941 340.7 L 313.678 340.768 C 320.5633339761405 340.768 326.145 346.34966602385947 326.145 353.23499999999996 L 326.145 431.64899999999994 C 328.481 430.95699999999994 331.477 430.21899999999994 334.75899999999996 429.44899999999996 C 339.4506418104603 428.3448345681259 342.7667422967864 424.1588218428472 342.768 419.33899999999994 L 342.768 322.073 C 342.7677347728748 318.76601558493127 344.08117485806264 315.59437128197476 346.4193784268579 313.25579264042216 C 348.7575819956532 310.9172139988696 351.9290155849295 309.603265205855 355.236 309.60299999999995 L 376.014 309.60299999999995 C 382.8988765370525 309.60410423042015 388.4798957695798 315.18512346294744 388.481 322.06999999999994 L 388.481 412.34899999999993 C 388.481 412.34899999999993 393.681 410.24299999999994 398.75 408.1039999999999 C 402.5979704541844 406.47619072272977 405.0995531130565 402.7051129446693 405.103 398.52699999999993 L 405.103 290.9 C 405.1027347696109 287.59363797998157 406.41599605178675 284.42260519242524 408.75385329349905 282.08456041202845 C 411.0917105352113 279.7465156316316 414.2626379693435 278.43299998936186 417.569 278.433 L 438.34700000000004 278.433 C 445.23249575550244 278.43299997785317 450.81444774657075 284.01450426664445 450.815 290.9 L 450.815 379.525 C 468.829 366.46999999999997 487.086 350.767 501.574 331.88599999999997 C 505.8434435344292 326.3192702070004 507.039349638644 318.9835033127947 504.759 312.349 C 484.67367447805736 253.8137740055482 429.99444635100343 214.1957032527372 368.11499999999995 213.34299999999996 C 286.67600000000004 212.249 219.371 278.728 219.37900000000002 360.177 C 219.29903686518884 385.9501363565444 226.02575931345052 411.28745757833013 238.87900000000002 433.62700000000007 C 242.49786383143189 439.8651920640493 249.4027731919958 443.44223693695 256.586 442.8 C 260.517 442.454 265.411 441.96500000000003 271.22900000000004 441.28200000000004 C 276.47131343696077 440.6854314834402 280.43270742270187 436.25214595655916 280.43800000000005 430.97600000000006 L 280.43800000000005 353.152" stroke-linecap="round" />
</g>
		<g transform="matrix(1 0 0 1 30.3 68.4)" id="Path_2"  >
<path style="stroke: none; stroke-width: 1; stroke-dasharray: none; stroke-linecap: butt; stroke-dashoffset: 0; stroke-linejoin: miter; stroke-miterlimit: 4; fill: rgb(23,24,25); fill-rule: nonzero; opacity: 1;" vector-effect="non-scaling-stroke"  transform=" translate(-361, -348.29)" d="M 244.417 398.641 C 289.07584779378266 431.12918726648945 348.1887738465452 435.80630561547747 397.4010096893579 410.74536306572264 C 446.61324553217065 385.6844205159679 477.59783504043196 335.1258537287818 477.589 279.9000000000001 C 477.589 276.519 477.432 273.176 477.206 269.851 C 423.564 349.851 324.52 387.251 244.41600000000003 398.644" stroke-linecap="round" />
</g>
</g>
</g>
</svg>

<svg xmlns="http://www.w3.org/2000/svg" width="293.775" height="293.667" viewBox="0 0 293.775 293.667">
  <g id="etherscan-logo-light-circle" transform="translate(-219.378 -213.333)">
    <path id="Path_1" data-name="Path 1" d="M280.433,353.152A12.45,12.45,0,0,1,292.941,340.7l20.737.068a12.467,12.467,0,0,1,12.467,12.467v78.414c2.336-.692,5.332-1.43,8.614-2.2a10.389,10.389,0,0,0,8.009-10.11V322.073a12.469,12.469,0,0,1,12.467-12.47h20.779a12.47,12.47,0,0,1,12.467,12.47v90.276s5.2-2.106,10.269-4.245a10.408,10.408,0,0,0,6.353-9.577V290.9a12.466,12.466,0,0,1,12.465-12.467h20.779A12.468,12.468,0,0,1,450.815,290.9v88.625c18.014-13.055,36.271-28.758,50.759-47.639a20.926,20.926,0,0,0,3.185-19.537,146.6,146.6,0,0,0-136.644-99.006c-81.439-1.094-148.744,65.385-148.736,146.834a146.371,146.371,0,0,0,19.5,73.45,18.56,18.56,0,0,0,17.707,9.173c3.931-.346,8.825-.835,14.643-1.518a10.383,10.383,0,0,0,9.209-10.306V353.152" transform="translate(0 0)" fill="#fff"/>
    <path id="Path_2" data-name="Path 2" d="M244.417,398.641A146.808,146.808,0,0,0,477.589,279.9c0-3.381-.157-6.724-.383-10.049-53.642,80-152.686,117.405-232.79,128.793" transform="translate(35.564 80.269)" fill="#bfcfda"/>
  </g>
</svg>
